X:1
T:He Just Put Himself in My Place
T:He Just Put Himself in My Place
T:Homer Hammontree, 1921
T:Arranged by J. M. G.
T:Public Domain Courtesy of the Cyber Hymnal™
T:Public Domain Courtesy of the Cyber Hymnal™
C:Homer Hammontree, 1921
Z:Public Domain
Z:Courtesy of the Cyber Hymnal™
%%score ( 1 2 ) ( 3 4 )
L:1/8
Q:1/4=113
M:4/4
K:Ab
V:1 treble 
V:2 treble 
V:3 bass 
V:4 bass 
V:1
 [A,C]>[B,D] | [CE]2 [CF][CG] [CA]2 [DB][CA] | [Ec]4 [CA]2 [CA]2 | %3
w: 1.~Shall I|tell you what brought me to|Je- sus, What|
w: 2.~O, He|felt all my load in the|gar- den, My|
w: 3.~Soon He’s|com- ing a- gain from the|glor- y, The|
 [FA]2 [EG][FA] [FB][FA][DF][FA] | [CE]6 [CE]>[CE] | [DE]2 [DF][DG] [DG]2 [DF][DE] | %6
w: caused me to seek His bless- èd|face? It was|this, that, to save and to|
w: guilt He did car- ry on the|tree; I was|lost, and con- demned un- to|
w: pro- phets of God on this a-|gree; And till|then this to o- thers I’m|
 [CA]4 [Ec]2 [Ec]>[Ec] | [EB]2 [EG]2 [=DF]2 [DG][DF] | !fermata!E6 ||"^Refrain" [DE]>[DE] | %10
w: cleanse me, He just|put Him- self in my|place.||
w: judg- ment, But my|Lord Him- self died for|me.||
w: tell- ing, That for|them He died as for|me.||
 [CA]2 [CA]2 [CA]2 [CG][CF] | G6 [DE]>[DE] | [DB]2 [DB]2 [DB]2 [CA]>[DG] | A6 [CE]2 | %14
w: ||||
w: ||||
w: ||||
 [Ec]>[Ec] [Ec]>[Ec] [Ec] [CA]2 [FA] | [Fd]2 [Fd]>[Fd] [Fd][FB][Fc][Fd] | %16
w: ||
w: ||
w: ||
"^riten." [Ae]2 [Ae]2 [Ae]2 [GB]>[Ec] | [CA]6 |] %18
w: ||
w: ||
w: ||
V:2
 x2 | x8 | x8 | x8 | x8 | x8 | x8 | x8 | (E2 C2 D2) || x2 | x8 | (DDD>D D2) x2 | x8 | %13
 (CCD>D C2) x2 | x8 | x8 | x8 | x6 |] %18
V:3
 [A,,E,]>[A,,E,] | [A,,A,]2 [A,,A,][A,,A,] [A,,A,]2 [A,,A,][A,,A,] | [A,,A,]4 [A,,E,]2 [A,,A,]2 | %3
w: ~ ~|~ ~ ~ ~ ~ ~|~ ~ ~|
 [D,A,]2 [D,A,][D,D] [D,D][D,D][D,A,][D,A,] | [A,,A,]6 [A,,A,]>[A,,A,] | %5
w: ~ ~ ~ ~ ~ ~ ~|~ ~ ~|
 [E,G,]2 [E,A,][E,B,] [E,B,]2 [E,A,][E,G,] | [A,,A,]4 [A,,A,]2 [A,,A,]>[A,,A,] | %7
w: ~ ~ ~ ~ ~ ~|~ ~ ~ ~|
 [B,,G,]2 [B,,B,]2 [B,,B,]2 [B,,B,][B,,A,] | (!fermata!G,2 A,2 !fermata!B,2) || [E,G,]>[E,G,] | %10
w: ~ ~ ~ ~ ~|~ * *|He just|
 [A,,A,]2 [A,,E,]2 [A,,E,]2 [A,,A,][A,,A,] | [E,B,][E,B,][E,B,]>[E,B,] [E,B,]2 [E,G,]>[E,G,] | %12
w: put Him- self in my|place (O bless His name!) He just|
 [E,G,]2 [E,G,]2 [E,G,]2 [E,A,]>[E,B,] | [A,,A,][A,,A,][A,,F,]>[A,,F,] [A,,E,]2 [A,,A,]2 | %14
w: put Him- self in my|place (O bless His name!) This|
 [A,,A,]>[A,,A,] [A,,A,]>[A,,A,] [A,,A,] [A,,A,]2 [D,A,] | %15
w: is the Gos- pel stor- y, To|
 [D,A,]2 [D,A,]>[D,A,] [D,A,][D,B,][C,=A,][B,,B,] | [E,C]2 [E,C]2 [E,B,]2 [E,D]>[E,G,] | %17
w: Je- sus the glor- y, He just|put Him- self in my|
 [A,,A,]6 |] %18
w: place.|
V:4
 x2 | x8 | x8 | x8 | x8 | x8 | x8 | x8 | E,6 || x2 | x8 | x8 | x8 | x8 | x8 | x8 | x8 | x6 |] %18

